src/apps/scalable/org.gnome.design.Lorem.svg

<?xml version="1.0" encoding="UTF-8" standalone="no"?>
<svg
   width="64"
   height="64"
   viewBox="0 0 64 64"
   version="1.1"
   id="svg17"
   sodipodi:docname="org.gnome.design.Lorem.svg"
   inkscape:version="1.3.2 (091e20ef0f, 2023-11-25)"
   xmlns:inkscape="http://www.inkscape.org/namespaces/inkscape"
   xmlns:sodipodi="http://sodipodi.sourceforge.net/DTD/sodipodi-0.dtd"
   xmlns:xlink="http://www.w3.org/1999/xlink"
   xmlns="http://www.w3.org/2000/svg"
   xmlns:svg="http://www.w3.org/2000/svg">
  <sodipodi:namedview
     id="namedview17"
     pagecolor="#ffffff"
     bordercolor="#111111"
     borderopacity="1"
     inkscape:showpageshadow="0"
     inkscape:pageopacity="0"
     inkscape:pagecheckerboard="1"
     inkscape:deskcolor="#d1d1d1"
     inkscape:zoom="12.546875"
     inkscape:cx="31.681196"
     inkscape:cy="31.920299"
     inkscape:window-width="1920"
     inkscape:window-height="1011"
     inkscape:window-x="0"
     inkscape:window-y="0"
     inkscape:window-maximized="1"
     inkscape:current-layer="svg17" />
  <defs
     id="defs2">
    <linearGradient
       id="linearGradient29"
       x1="30.14204"
       x2="30.14204"
       y1="55.24192"
       y2="8.8147602"
       gradientUnits="userSpaceOnUse"
       spreadMethod="pad">
      <stop
         offset="-99"
         stop-color="#FDFCFC"
         id="stop28" />
      <stop
         offset="1"
         stop-color="#EEE"
         id="stop29"
         style="stop-color:#000000;stop-opacity:1;" />
    </linearGradient>
    <linearGradient
       id="linearGradient26"
       x1="30.14204"
       x2="30.14204"
       y1="55.24192"
       y2="8.8147602"
       gradientUnits="userSpaceOnUse"
       spreadMethod="pad">
      <stop
         offset="-99"
         stop-color="#FDFCFC"
         id="stop26" />
      <stop
         offset="1"
         stop-color="#EEE"
         id="stop25"
         style="stop-color:#e1e1e1;stop-opacity:1;" />
    </linearGradient>
    <linearGradient
       id="linearGradient23"
       inkscape:collect="always">
      <stop
         style="stop-color:#ed333b;stop-opacity:1;"
         offset="0"
         id="stop23" />
      <stop
         style="stop-color:#ca121b;stop-opacity:1;"
         offset="1"
         id="stop24" />
    </linearGradient>
    <linearGradient
       id="linearGradient21"
       x1="30.14204"
       x2="30.14204"
       y1="55.24192"
       y2="8.8147602"
       gradientUnits="userSpaceOnUse"
       spreadMethod="pad">
      <stop
         offset="0"
         stop-color="#EEE"
         id="stop20"
         style="stop-color:#ed333b;stop-opacity:1;" />
      <stop
         offset="100%"
         stop-color="#FDFCFC"
         id="stop21" />
    </linearGradient>
    <linearGradient
       id="linearGradient19"
       x1="30.14204"
       x2="30.14204"
       y1="55.241919"
       y2="8.8147601"
       gradientUnits="userSpaceOnUse">
      <stop
         offset="0"
         stop-color="#EEE"
         id="stop18"
         style="stop-color:#ed333b;stop-opacity:1;" />
      <stop
         offset="100%"
         stop-color="#FDFCFC"
         id="stop19" />
    </linearGradient>
    <linearGradient
       id="c"
       x1="30.14204"
       x2="30.14204"
       y1="55.241919"
       y2="8.8147601"
       gradientUnits="userSpaceOnUse"
       xlink:href="#linearGradient21">
      <stop
         offset="0%"
         stop-color="#EEE"
         id="stop1" />
      <stop
         offset="100%"
         stop-color="#FDFCFC"
         id="stop2" />
    </linearGradient>
    <filter
       id="b"
       width="1.0923077"
       height="1.1115385"
       x="-0.046153846"
       y="-0.046153846"
       filterUnits="objectBoundingBox">
      <feOffset
         dy="1"
         in="SourceAlpha"
         result="shadowOffsetOuter1"
         id="feOffset2" />
      <feGaussianBlur
         in="shadowOffsetOuter1"
         result="shadowBlurOuter1"
         stdDeviation="1"
         id="feGaussianBlur2" />
      <feColorMatrix
         in="shadowBlurOuter1"
         values="0 0 0 0 0 0 0 0 0 0 0 0 0 0 0 0 0 0 0.24 0"
         id="feColorMatrix2" />
    </filter>
    <rect
       id="a"
       width="52"
       height="52"
       x="6"
       y="6"
       rx="11" />
    <linearGradient
       id="b-3"
       gradientTransform="matrix(-0.37582312,0,0,-0.37582312,62.05268,123.69425)"
       x1="93"
       x2="116"
       xlink:href="#a-6"
       y1="195.5"
       y2="195.5" />
    <linearGradient
       id="a-6"
       gradientUnits="userSpaceOnUse">
      <stop
         offset="0"
         stop-color="#a51d2d"
         id="stop1-7" />
      <stop
         offset="0.565217"
         stop-color="#a51d2d"
         id="stop2-5" />
      <stop
         offset="0.782609"
         stop-color="#e01b24"
         id="stop3" />
      <stop
         offset="1"
         stop-color="#a51d2d"
         id="stop4" />
    </linearGradient>
    <linearGradient
       id="c-3"
       gradientTransform="matrix(0.37582312,0,0,-0.37582312,13.94732,123.69425)"
       x1="93"
       x2="116"
       xlink:href="#a-6"
       y1="195.5"
       y2="195.5" />
    <linearGradient
       inkscape:collect="always"
       xlink:href="#c"
       id="linearGradient18"
       x1="8.9499998"
       y1="33"
       x2="55.049999"
       y2="33"
       gradientUnits="userSpaceOnUse" />
    <linearGradient
       inkscape:collect="always"
       xlink:href="#linearGradient23"
       id="linearGradient24"
       x1="31.997999"
       y1="9"
       x2="32.570049"
       y2="53.697075"
       gradientUnits="userSpaceOnUse" />
    <linearGradient
       inkscape:collect="always"
       xlink:href="#linearGradient26"
       id="linearGradient27"
       gradientUnits="userSpaceOnUse"
       x1="32"
       y1="10"
       x2="32"
       y2="56"
       gradientTransform="translate(0.00200062)" />
    <filter
       inkscape:collect="always"
       style="color-interpolation-filters:sRGB"
       id="filter29"
       x="-0.14700001"
       y="-0.14700001"
       width="1.294"
       height="1.294">
      <feGaussianBlur
         inkscape:collect="always"
         stdDeviation="2.8175"
         id="feGaussianBlur29" />
    </filter>
  </defs>
  <use
     xlink:href="#a"
     fill="#000000"
     filter="url(#b)"
     id="use2"
     style="fill-rule:nonzero;stroke:none;stroke-opacity:1" />
  <use
     xlink:href="#a"
     fill="url(#c)"
     id="use3"
     style="display:inline;fill:url(#linearGradient24);fill-rule:nonzero;stroke:none;stroke-opacity:1;fill-opacity:1" />
  <g
     transform="translate(-0.00199986,-1)"
     id="g16"
     style="display:inline;fill:url(#linearGradient18);fill-rule:evenodd;fill-opacity:1">
    <rect
       width="46"
       height="46"
       x="9"
       y="10"
       stroke="#ff0099"
       stroke-width="0.1"
       rx="8"
       id="rect10"
       style="display:inline;fill:#000000;fill-opacity:1;stroke:none;filter:url(#filter29);opacity:0.25" />
    <rect
       width="46"
       height="46"
       x="9.0019999"
       y="10"
       stroke="#ff0099"
       stroke-width="0.1"
       rx="8"
       id="rect10-2"
       style="display:inline;fill:url(#linearGradient27);fill-opacity:1;fill-rule:evenodd;stroke:none" />
  </g>
  <g
     id="g17"
     style="display:inline;fill:none;fill-rule:evenodd"
     transform="matrix(1.3729483,0,0,1.3729483,-20.172034,-16.200546)">
    <g
       fill="#3584e4"
       id="g10"
       transform="matrix(0.37582312,0,0,0.37582312,13.94732,10.94732)">
      <path
         d="m 32,40 h 20 v 4 H 32 Z m 0,0"
         id="path7" />
      <path
         d="M 44,42 V 66 H 40 V 42 Z m 0,0"
         id="path8" />
      <path
         d="m 32,64 h 28 v 4 H 32 Z m 0,0"
         id="path9" />
      <path
         d="M 60,52 V 68 H 56 V 52 Z m 0,0"
         id="path10-5" />
    </g>
    <path
       d="m 39.503292,25.980245 h 1.503293 v 1.503293 h -1.503293 z m 0,0"
       fill="#3584e4"
       id="path17"
       style="stroke-width:0.375823" />
    <path
       d="m 42.509877,25.980245 h 1.503293 v 1.503293 h -1.503293 z m 0,0"
       fill="#3584e4"
       id="path18"
       style="stroke-width:0.375823" />
    <path
       d="m 45.516462,25.980245 h 1.503293 v 1.503293 h -1.503293 z m 0,0"
       fill="#3584e4"
       id="path19"
       style="stroke-width:0.375823" />
    <path
       d="m 48.523047,25.980245 h 1.503293 v 1.503293 h -1.503293 z m 0,0"
       fill="#3584e4"
       id="path20"
       style="stroke-width:0.375823" />
    <path
       d="M 39.503292,30.490123 H 50.02634 v 1.503292 H 39.503292 Z m 0,0"
       fill="#c0bfbc"
       id="path21"
       style="stroke-width:0.375823" />
    <path
       d="M 39.503292,35 H 50.02634 v 1.503292 H 39.503292 Z m 0,0"
       fill="#c0bfbc"
       id="path22"
       style="stroke-width:0.375823" />
    <path
       d="M 25.97366,39.509877 H 50.02634 V 41.01317 H 25.97366 Z m 0,0"
       fill="#c0bfbc"
       id="path23"
       style="stroke-width:0.375823" />
    <path
       d="m 25.97366,44.019755 h 13.529632 v 1.503292 H 25.97366 Z m 0,0"
       fill="#c0bfbc"
       id="path24"
       style="stroke-width:0.375823" />
    <path
       d="m 42.509877,44.019755 h 1.503293 v 1.503292 h -1.503293 z m 0,0"
       fill="#ed333b"
       id="path25"
       style="stroke-width:0.375823" />
    <path
       d="m 45.516462,44.019755 h 1.503293 v 1.503292 h -1.503293 z m 0,0"
       fill="#ed333b"
       id="path26"
       style="stroke-width:0.375823" />
    <path
       d="m 48.523047,44.019755 h 1.503293 v 1.503292 h -1.503293 z m 0,0"
       fill="#ed333b"
       id="path27"
       style="stroke-width:0.375823" />
  </g>
</svg>

<svg xmlns="http://www.w3.org/2000/svg" xmlns:xlink="http://www.w3.org/1999/xlink" width="64" height="64"><defs><linearGradient id="e" x1="30.142" x2="30.142" y1="55.242" y2="8.815" gradientUnits="userSpaceOnUse" spreadMethod="pad"><stop offset="-99" stop-color="#FDFCFC"/><stop offset="1" stop-color="#EEE" style="stop-color:#e1e1e1;stop-opacity:1"/></linearGradient><linearGradient id="d"><stop offset="0" style="stop-color:#ed333b;stop-opacity:1"/><stop offset="1" style="stop-color:#ca121b;stop-opacity:1"/></linearGradient><linearGradient id="a" x1="30.142" x2="30.142" y1="55.242" y2="8.815" gradientUnits="userSpaceOnUse" spreadMethod="pad"><stop offset="0" stop-color="#EEE" style="stop-color:#ed333b;stop-opacity:1"/><stop offset="100%" stop-color="#FDFCFC"/></linearGradient><linearGradient xlink:href="#a" id="c" x1="30.142" x2="30.142" y1="55.242" y2="8.815" gradientUnits="userSpaceOnUse"><stop offset="0%" stop-color="#EEE"/><stop offset="100%" stop-color="#FDFCFC"/></linearGradient><linearGradient xlink:href="#c" id="i" x1="8.95" x2="55.05" y1="33" y2="33" gradientUnits="userSpaceOnUse"/><linearGradient xlink:href="#d" id="h" x1="31.998" x2="32.57" y1="9" y2="53.697" gradientUnits="userSpaceOnUse"/><linearGradient xlink:href="#e" id="k" x1="32" x2="32" y1="10" y2="56" gradientTransform="translate(.002)" gradientUnits="userSpaceOnUse"/><filter id="g" width="1.092" height="1.112" x="-.046" y="-.046" filterUnits="objectBoundingBox"><feOffset dy="1" in="SourceAlpha" result="shadowOffsetOuter1"/><feGaussianBlur in="shadowOffsetOuter1" result="shadowBlurOuter1" stdDeviation="1"/><feColorMatrix in="shadowBlurOuter1" values="0 0 0 0 0 0 0 0 0 0 0 0 0 0 0 0 0 0 0.24 0"/></filter><filter id="j" width="1.294" height="1.294" x="-.147" y="-.147" style="color-interpolation-filters:sRGB"><feGaussianBlur stdDeviation="2.817"/></filter><rect id="f" width="52" height="52" x="6" y="6" rx="11"/></defs><use xlink:href="#f" filter="url(#g)" style="fill-rule:nonzero;stroke:none;stroke-opacity:1"/><use xlink:href="#f" fill="url(#c)" style="display:inline;fill:url(#h);fill-rule:nonzero;stroke:none;stroke-opacity:1;fill-opacity:1"/><g style="display:inline;fill:url(#i);fill-rule:evenodd;fill-opacity:1" transform="translate(-.002 -1)"><rect width="46" height="46" x="9" y="10" rx="8" style="display:inline;fill:#000;fill-opacity:1;stroke:none;filter:url(#j);opacity:.25"/><rect width="46" height="46" x="9.002" y="10" rx="8" style="display:inline;fill:url(#k);fill-opacity:1;fill-rule:evenodd;stroke:none"/></g><g style="display:inline;fill:none;fill-rule:evenodd"><g fill="#3584e4"><path d="M15.488 19.469h10.32v2.064h-10.32Zm0 0"/><path d="M21.68 20.501v12.384h-2.064V20.5Zm0 0"/><path d="M15.488 31.853h14.448v2.064H15.488Zm0 0"/><path d="M29.936 25.66v8.257h-2.064V25.66Zm0 0"/></g><path fill="#3584e4" d="M39.503 25.98h1.504v1.504h-1.504zM42.51 25.98h1.503v1.504H42.51zM45.516 25.98h1.504v1.504h-1.504zM48.523 25.98h1.503v1.504h-1.503zm0 0" style="stroke-width:.375823" transform="matrix(1.37295 0 0 1.37295 -20.172 -16.2)"/><path fill="#c0bfbc" d="M39.503 30.49h10.523v1.503H39.503ZM39.503 35h10.523v1.503H39.503ZM25.974 39.51h24.052v1.503H25.974ZM25.974 44.02h13.53v1.503h-13.53Zm0 0" style="stroke-width:.375823" transform="matrix(1.37295 0 0 1.37295 -20.172 -16.2)"/><path fill="#ed333b" d="M42.51 44.02h1.503v1.503H42.51zM45.516 44.02h1.504v1.503h-1.504zM48.523 44.02h1.503v1.503h-1.503zm0 0" style="stroke-width:.375823" transform="matrix(1.37295 0 0 1.37295 -20.172 -16.2)"/></g></svg>
